misc/icons/Mountain/64x64/apps/avogadro-icon.svg

<svg xmlns="http://www.w3.org/2000/svg" width="64" height="64" version="1.1">
 <path style="opacity:0.2" d="m 27.094708,5.0099972 c -1.066566,0.073164 -1.246294,0.5785278 -1.84019,2.0671784 L 4.7608728,58.444919 c -1.076797,2.47857 -1.343767,2.480068 1.460121,2.480068 h 7.2431852 c 2.791602,0.215942 2.963922,0.10084 3.885452,-2.209366 l 4.134275,-9.717204 h 10.516152 10.516154 l 4.134274,9.717204 c 0.92153,2.310206 1.09385,2.425308 3.885454,2.209366 h 7.243182 c 2.80389,0 2.536922,-0.0015 1.460124,-2.480068 L 38.745598,7.0771756 C 38.151704,5.588525 37.971976,5.0831608 36.90541,5.0099972 c -0.355522,-0.024388 -0.810388,-0.0027 -1.410904,0.049218 H 32.000058 28.505612 C 27.905094,5.0072934 27.45023,4.9856094 27.094708,5.0099972 Z m 4.90535,16.9776598 6.05923,15.21126 h -6.05923 -6.059228 z"/>
 <path style="fill:#4f4f4f" d="m 27.094708,4.0099973 c -1.066566,0.073164 -1.246294,0.5785278 -1.84019,2.0671784 L 4.7608728,57.444919 c -1.076797,2.47857 -1.343767,2.480068 1.460121,2.480068 h 7.2431852 c 2.791602,0.215942 2.963922,0.10084 3.885452,-2.209366 l 4.134275,-9.717204 h 10.516152 10.516154 l 4.134274,9.717204 c 0.92153,2.310206 1.09385,2.425308 3.885454,2.209366 h 7.243182 c 2.80389,0 2.536922,-0.0015 1.460124,-2.480068 L 38.745598,6.0771757 C 38.151704,4.5885251 37.971976,4.0831609 36.90541,4.0099973 c -0.355522,-0.024388 -0.810388,-0.0027 -1.410904,0.049218 H 32.000058 28.505612 C 27.905094,4.0072935 27.45023,3.9856095 27.094708,4.0099973 Z m 4.90535,16.9776597 6.05923,15.21126 h -6.05923 -6.059228 z"/>
 <ellipse style="fill:none;stroke:#ff631b;stroke-width:5.14293766;stroke-linecap:round;stroke-linejoin:round" cx="41.941" cy="11.909" rx="31.179" ry="7.224" transform="matrix(0.87762155,0.47935417,-0.40371213,0.91488607,0,0)"/>
 <path style="fill:#4f4f4f" d="m 17.96786,24.341171 -3.901935,9.778082 26.055745,13.88035 h 2.395302 l 0.81564,1.533976 15.757334,7.535184 -6.537862,-16.387038 -15.654228,-7.396452 1.162104,2.91483 h -6.059348 -6.059348 l 2.712488,-6.811298 z"/>
 <ellipse style="fill:none;stroke:#ff631b;stroke-width:5.14293766;stroke-linecap:round;stroke-linejoin:round" cx="-16.821" cy="42.697" rx="31.179" ry="7.224" transform="matrix(-0.87762155,0.47935417,0.40371213,0.91488607,0,0)"/>
 <path style="fill:#ff631b" d="m 22.792827,25.065134 5.153568,2.894534 c -4.629964,2.643643 -8.793355,5.388971 -12.171478,7.959965 L 11.644074,32.74413 c 3.14163,-2.505472 6.912666,-5.117056 11.148753,-7.678996 z"/>
 <path style="fill:#4f4f4f" d="m 46.033364,24.341171 3.901934,9.778082 -26.055744,13.88035 h -2.395302 l -0.81564,1.533976 -15.7573338,7.535184 6.5378608,-16.387038 15.654229,-7.396452 -1.162104,2.91483 h 6.059348 6.059348 l -2.712488,-6.811298 z"/>
 <path style="fill:#ff631b" d="m 41.207171,25.065134 -5.153568,2.894534 c 4.629964,2.643643 8.793355,5.388971 12.171478,7.959965 l 4.130843,-3.175503 c -3.14163,-2.505472 -6.912666,-5.117056 -11.148753,-7.678996 z"/>
 <path style="opacity:0.2" d="M 2.0410156 17.257812 C 1.9787368 17.974797 2.0504927 18.689695 2.2265625 19.324219 C 2.5219931 20.3889 3.0267194 21.330183 3.6582031 22.273438 C 4.9211714 24.159951 6.7465448 26.073877 9.0683594 28.121094 C 10.319432 29.224203 11.725788 30.360831 13.248047 31.513672 C 13.471848 31.343835 13.680997 31.176375 13.910156 31.005859 C 12.132137 29.684747 10.496407 28.380248 9.0683594 27.121094 C 6.7465448 25.073877 4.9211714 23.159951 3.6582031 21.273438 C 3.0267194 20.330182 2.5219931 19.3889 2.2265625 18.324219 C 2.1334637 17.988707 2.076338 17.627055 2.0410156 17.257812 z M 8.0957031 17.310547 C 7.6259088 17.319889 7.4233441 17.389876 7.1855469 17.447266 C 7.2901844 17.691677 7.365914 17.910986 7.6464844 18.330078 C 7.6508118 18.336542 7.6577393 18.34507 7.6621094 18.351562 C 7.7842034 18.333085 7.9074334 18.314291 8.0957031 18.310547 C 9.4488847 18.283637 11.607238 18.611323 14.210938 19.328125 C 19.41834 20.76173 26.464129 23.692258 33.878906 27.742188 C 41.293683 31.792116 47.68445 36.201209 51.888672 39.908203 C 53.980676 41.75279 55.528163 43.441969 56.339844 44.648438 C 56.521342 44.621333 56.672374 44.588964 56.814453 44.554688 C 56.709835 44.310268 56.634187 44.087212 56.353516 43.667969 C 55.545075 42.460391 53.990783 40.761701 51.888672 38.908203 C 47.68445 35.201209 41.293683 30.792116 33.878906 26.742188 C 26.464129 22.692258 19.41834 19.76173 14.210938 18.328125 C 11.607238 17.611323 9.4488847 17.283637 8.0957031 17.310547 z M 61.958984 45.746094 C 61.916764 46.232153 61.824727 46.718214 61.621094 47.179688 C 61.11708 48.321876 60.162427 49.065947 59.224609 49.457031 C 58.291481 49.846161 57.318496 49.977988 56.267578 50 L 56.660156 50.980469 C 57.561318 50.934962 58.409588 50.796909 59.224609 50.457031 C 60.162427 50.065947 61.11708 49.321875 61.621094 48.179688 C 61.966073 47.397899 62.035516 46.548156 61.958984 45.746094 z"/>
 <circle style="opacity:0.2" cx="15.001" cy="16" r="7"/>
 <circle style="fill:#ffc500" cx="15.001" cy="15" r="7"/>
 <path style="opacity:0.2;fill:#ffffff" d="M 15 8 A 6.9999694 6.9999694 0 0 0 8 15 A 6.9999694 6.9999694 0 0 0 8.0253906 15.445312 A 6.9999694 6.9999694 0 0 1 15 9 A 6.9999694 6.9999694 0 0 1 21.974609 15.478516 A 6.9999694 6.9999694 0 0 0 22 15 A 6.9999694 6.9999694 0 0 0 15 8 z"/>
 <path style="opacity:0.2" d="M 61.964844 17.257812 C 61.929521 17.627055 61.872397 17.988707 61.779297 18.324219 C 61.483866 19.3889 60.97914 20.330181 60.347656 21.273438 C 59.084688 23.159951 57.259314 25.073877 54.9375 27.121094 C 53.509452 28.380248 51.873722 29.684747 50.095703 31.005859 C 50.324862 31.176375 50.534011 31.343835 50.757812 31.513672 C 52.280071 30.360831 53.686427 29.224203 54.9375 28.121094 C 57.259314 26.073877 59.084688 24.159951 60.347656 22.273438 C 60.97914 21.330182 61.483866 20.3889 61.779297 19.324219 C 61.955344 18.689695 62.027124 17.974798 61.964844 17.257812 z M 55.910156 17.310547 C 54.556975 17.283637 52.398622 17.611323 49.794922 18.328125 C 46.387697 19.266139 42.186887 20.854779 37.617188 22.96875 C 37.943667 23.152667 38.275479 23.334638 38.597656 23.519531 C 42.787203 21.629195 46.63236 20.198783 49.794922 19.328125 C 52.398622 18.611323 54.556975 18.283637 55.910156 18.310547 C 56.098426 18.314297 56.221656 18.333082 56.34375 18.351562 C 56.34813 18.345073 56.355075 18.336578 56.359375 18.330078 C 56.639945 17.910986 56.715676 17.691677 56.820312 17.447266 C 56.582515 17.389877 56.37995 17.319847 55.910156 17.310547 z M 32.005859 25.744141 C 31.380991 26.072405 30.758074 26.397471 30.126953 26.742188 C 22.712176 30.792116 16.321409 35.201209 12.117188 38.908203 C 10.015076 40.761701 8.4607847 42.460391 7.6523438 43.667969 C 7.3716727 44.087212 7.2960243 44.310268 7.1914062 44.554688 C 7.3334853 44.588968 7.4845176 44.621338 7.6660156 44.648438 C 8.4776966 43.441969 10.025184 41.75279 12.117188 39.908203 C 16.32141 36.201209 22.712176 31.792116 30.126953 27.742188 C 31.07464 27.224563 32.014701 26.726358 32.947266 26.246094 C 32.632677 26.077526 32.318758 25.908553 32.005859 25.744141 z M 2.046875 45.746094 C 1.970343 46.548156 2.0397866 47.397898 2.3847656 48.179688 C 2.8887796 49.321875 3.843432 50.065947 4.78125 50.457031 C 5.596271 50.796909 6.4445411 50.934959 7.3457031 50.980469 L 7.7382812 50 C 6.6873632 49.977988 5.714378 49.846161 4.78125 49.457031 C 3.843432 49.065947 2.8887796 48.321875 2.3847656 47.179688 C 2.1811326 46.718213 2.089095 46.232153 2.046875 45.746094 z"/>
 <circle style="opacity:0.2" cx="53.5" cy="25.5" r="5.5"/>
 <circle style="fill:#ffc500" cx="53.5" cy="24.5" r="5.5"/>
 <path style="opacity:0.2;fill:#ffffff" d="M 53.5 19 A 5.5 5.5 0 0 0 48 24.5 A 5.5 5.5 0 0 0 48.025391 24.986328 A 5.5 5.5 0 0 1 53.5 20 A 5.5 5.5 0 0 1 58.974609 25.013672 A 5.5 5.5 0 0 0 59 24.5 A 5.5 5.5 0 0 0 53.5 19 z"/>
</svg>

<svg xmlns="http://www.w3.org/2000/svg" width="64" height="64" version="1.1">
 <path style="opacity:0.2" d="M 27.095,5 C 26.026,5 25.848,5.5885 25.255,7.0772 L 4.7611,58.445 C 3.6843,60.923 3.4173,61 6.2212,61 H 13.464 C 16.257,61 16.428,61.026 17.35,58.716 L 21.484,49 H 42.516 L 46.65,58.716 C 47.572,61.026 47.744,61 50.536,61 H 57.779 C 60.583,61 60.316,60.923 59.239,58.445 L 38.746,7.0772 C 38.152,5.5885 37.974,5 36.905,5 Z M 32,21.988 38.059,37.199 H 25.941 Z"/>
 <path style="fill:#4f4f4f" d="M 27.095,4 C 26.026,4 25.848,4.5885 25.255,6.0772 L 4.7611,57.445 C 3.6843,59.923 3.4173,60 6.2212,60 H 13.464 C 16.257,60 16.428,60.026 17.35,57.716 L 21.484,48 H 42.516 L 46.65,57.716 C 47.572,60.026 47.744,60 50.536,60 H 57.779 C 60.583,60 60.316,59.923 59.239,57.445 L 38.746,6.0772 C 38.152,4.5885 37.974,4 36.905,4 Z M 32,20.988 38.059,36.199 H 25.941 Z"/>
 <ellipse style="fill:none;stroke:#ff631b;stroke-width:5.14294;stroke-linecap:round;stroke-linejoin:round" cx="41.941" cy="11.909" rx="31.179" ry="7.224" transform="matrix(0.87762,0.47935,-0.40371,0.91489,0,0)"/>
 <path style="fill:#4f4f4f" d="M 17.968,24.341 14.066,34.119 40.122,48 H 42.517 L 43.333,49.534 59.09,57.069 52.552,40.682 36.898,33.285 38.06,36.2 H 32.001 25.941 L 28.654,29.389 Z"/>
 <ellipse style="fill:none;stroke:#ff631b;stroke-width:5.14294;stroke-linecap:round;stroke-linejoin:round" cx="-16.821" cy="42.697" rx="31.179" ry="7.224" transform="matrix(-0.87762,0.47935,0.40371,0.91489,0,0)"/>
 <path style="fill:#ff631b" d="M 22.793,25.065 27.946,27.96 C 23.316,30.603 19.153,33.349 15.775,35.92 L 11.644,32.744 C 14.786,30.239 18.557,27.627 22.793,25.065 Z"/>
 <path style="fill:#4f4f4f" d="M 46.033,24.341 49.935,34.119 23.88,48 H 21.484 L 20.669,49.534 4.9114,57.069 11.449,40.682 27.103,33.285 25.941,36.2 H 32.001 38.06 L 35.347,29.389 Z"/>
 <path style="fill:#ff631b" d="M 41.207,25.065 36.054,27.96 C 40.684,30.603 44.847,33.349 48.225,35.92 L 52.356,32.744 C 49.214,30.239 45.443,27.627 41.207,25.065 Z"/>
 <path style="opacity:0.2" d="M 2.0411,17.258 C 1.9788,17.975 2.0506,18.69 2.2267,19.324 2.5221,20.389 3.0268,21.33 3.6583,22.273 4.9213,24.16 6.7466,26.074 9.0685,28.121 10.319,29.224 11.726,30.361 13.248,31.514 13.472,31.344 13.681,31.176 13.91,31.006 12.132,29.685 10.496,28.38 9.0685,27.121 6.7466,25.074 4.9213,23.16 3.6583,21.273 3.0268,20.33 2.5221,19.389 2.2267,18.324 2.1336,17.989 2.0764,17.627 2.0411,17.258 Z M 8.0958,17.311 C 7.626,17.32 7.4234,17.39 7.1856,17.447 7.2903,17.692 7.366,17.911 7.6466,18.33 7.6509,18.337 7.6578,18.345 7.6622,18.352 7.7843,18.333 7.9075,18.314 8.0958,18.311 9.449,18.284 11.607,18.611 14.211,19.328 19.418,20.762 26.464,23.692 33.879,27.742 41.294,31.792 47.684,36.201 51.889,39.908 53.981,41.753 55.528,43.442 56.34,44.648 56.521,44.621 56.672,44.589 56.814,44.555 56.71,44.31 56.634,44.087 56.354,43.668 55.545,42.46 53.991,40.762 51.889,38.908 47.684,35.201 41.294,30.792 33.879,26.742 26.464,22.692 19.418,19.762 14.211,18.328 11.607,17.611 9.449,17.284 8.0958,17.311 Z M 61.959,45.746 C 61.917,46.232 61.825,46.718 61.621,47.18 61.117,48.322 60.162,49.066 59.225,49.457 58.291,49.846 57.318,49.978 56.268,50 L 56.66,50.98 C 57.561,50.935 58.41,50.797 59.225,50.457 60.162,50.066 61.117,49.322 61.621,48.18 61.966,47.398 62.036,46.548 61.959,45.746 Z"/>
 <circle style="opacity:0.2" cx="15.001" cy="16" r="7"/>
 <circle style="fill:#ffc500" cx="15.001" cy="15" r="7"/>
 <path style="opacity:0.2;fill:#ffffff" d="M 15,8 A 7,7 0 0 0 8.0001,15 7,7 0 0 0 8.0255,15.445 7,7 0 0 1 15,9 7,7 0 0 1 21.975,15.479 7,7 0 0 0 22,15 7,7 0 0 0 15,8 Z"/>
 <path style="opacity:0.2" d="M 61.965,17.258 C 61.93,17.627 61.872,17.989 61.779,18.324 61.484,19.389 60.979,20.33 60.348,21.273 59.085,23.16 57.259,25.074 54.938,27.121 53.509,28.38 51.874,29.685 50.096,31.006 50.325,31.176 50.534,31.344 50.758,31.514 52.28,30.361 53.686,29.224 54.938,28.121 57.259,26.074 59.085,24.16 60.348,22.273 60.979,21.33 61.484,20.389 61.779,19.324 61.955,18.69 62.027,17.975 61.965,17.258 Z M 55.91,17.311 C 54.557,17.284 52.399,17.611 49.795,18.328 46.388,19.266 42.187,20.855 37.617,22.969 37.944,23.153 38.275,23.335 38.598,23.52 42.787,21.629 46.632,20.199 49.795,19.328 52.399,18.611 54.557,18.284 55.91,18.311 56.098,18.314 56.222,18.333 56.344,18.352 56.348,18.345 56.355,18.337 56.359,18.33 56.64,17.911 56.716,17.692 56.82,17.447 56.583,17.39 56.38,17.32 55.91,17.311 Z M 32.006,25.744 C 31.381,26.072 30.758,26.397 30.127,26.742 22.712,30.792 16.321,35.201 12.117,38.908 10.015,40.762 8.4609,42.46 7.6524,43.668 7.3718,44.087 7.2961,44.31 7.1915,44.555 7.3336,44.589 7.4846,44.621 7.6661,44.648 8.4778,43.442 10.025,41.753 12.117,39.908 16.321,36.201 22.712,31.792 30.127,27.742 31.075,27.225 32.015,26.726 32.947,26.246 32.633,26.078 32.319,25.909 32.006,25.744 Z M 2.047,45.746 C 1.9704,46.548 2.0399,47.398 2.3849,48.18 2.8889,49.322 3.8435,50.066 4.7813,50.457 5.5964,50.797 6.4446,50.935 7.3458,50.98 L 7.7384,50 C 6.6875,49.978 5.7145,49.846 4.7813,49.457 3.8435,49.066 2.8889,48.322 2.3849,47.18 2.1812,46.718 2.0892,46.232 2.047,45.746 Z"/>
 <circle style="opacity:0.2" cx="53.5" cy="25.5" r="5.5"/>
 <circle style="fill:#ffc500" cx="53.5" cy="24.5" r="5.5"/>
 <path style="opacity:0.2;fill:#ffffff" d="M 53.5,19 A 5.5,5.5 0 0 0 48,24.5 5.5,5.5 0 0 0 48.025,24.986 5.5,5.5 0 0 1 53.5,20 5.5,5.5 0 0 1 58.975,25.014 5.5,5.5 0 0 0 59,24.5 5.5,5.5 0 0 0 53.5,19 Z"/>
</svg>
